assets/icons/24px/outline/stack-vertical-24px.svg

<svg width="24" height="24" viewBox="0 0 24 24" fill="none" xmlns="http://www.w3.org/2000/svg">
<path d="M4.93971 18.2369L4.29251 18.9992L4.93971 18.2369ZM4.74526 15.3768L4.00085 14.709L4.74526 15.3768ZM9.53783 20.392L9.12747 21.304L9.53783 20.392ZM12 21.2102L12 22.2102L12 21.2102ZM17.3056 19.1125L16.8952 18.2006L17.3056 19.1125ZM18.8995 18.2825L19.5774 19.0176L18.8995 18.2825ZM19.0184 15.4612L19.7558 14.7857L19.0184 15.4612ZM16.8952 18.2006L14.0518 19.4801L14.8725 21.304L17.7159 20.0244L16.8952 18.2006ZM9.9482 19.4801L6.71192 18.0238L5.8912 19.8477L9.12747 21.304L9.9482 19.4801ZM6.71192 18.0238C6.32211 17.8484 6.05738 17.7291 5.8617 17.6313C5.66048 17.5309 5.59968 17.4854 5.5869 17.4745L4.29251 18.9992C4.4954 19.1714 4.73346 19.3034 4.96822 19.4207C5.20852 19.5407 5.51689 19.6792 5.8912 19.8477L6.71192 18.0238ZM5.46999 13.652C5.12192 13.8696 4.83515 14.0486 4.6133 14.2C4.39656 14.3479 4.17856 14.5109 4.00085 14.709L5.48968 16.0445C5.50087 16.032 5.55496 15.9787 5.74073 15.8519C5.92138 15.7286 6.16752 15.5745 6.53001 15.348L5.46999 13.652ZM5.5869 17.4745C5.15774 17.1102 5.11378 16.4636 5.48968 16.0445L4.00085 14.709C2.87316 15.9663 3.00504 17.9062 4.29251 18.9992L5.5869 17.4745ZM14.0518 19.4801C12.7582 20.0623 12.3791 20.2102 12 20.2102L12 22.2102C12.9086 22.2102 13.7418 21.8128 14.8725 21.304L14.0518 19.4801ZM9.12747 21.304C10.2582 21.8128 11.0914 22.2102 12 22.2102L12 20.2102C11.6209 20.2102 11.2418 20.0623 9.9482 19.4801L9.12747 21.304ZM17.7159 20.0244C18.1589 19.8251 18.5221 19.6619 18.8026 19.5202C19.075 19.3826 19.3513 19.2261 19.5774 19.0176L18.2216 17.5473C18.2088 17.5591 18.1399 17.6143 17.9009 17.7351C17.67 17.8517 17.3556 17.9934 16.8952 18.2006L17.7159 20.0244ZM17.0143 15.3742C17.4557 15.6194 17.757 15.787 17.9773 15.9227C18.2053 16.0631 18.2693 16.1239 18.2811 16.1367L19.7558 14.7857C19.5481 14.559 19.2859 14.3798 19.0261 14.2197C18.7584 14.0549 18.4103 13.8618 17.9857 13.6258L17.0143 15.3742ZM19.5774 19.0176C20.7926 17.8971 20.8724 16.0046 19.7558 14.7857L18.2811 16.1367C18.6533 16.543 18.6267 17.1738 18.2216 17.5473L19.5774 19.0176Z" fill="white"/>
<path d="M5.10047 13.7825L4.42255 14.5176L5.10047 13.7825ZM4.98154 10.9613L4.24416 10.2858L4.98154 10.9613ZM14.4269 15.9079L14.0165 14.996L14.4269 15.9079ZM12.0364 16.7101L12.0242 15.7101L12.0364 16.7101ZM9.57311 15.9079L9.98347 14.996L9.57311 15.9079ZM11.9636 16.7101L11.9515 17.71L11.9636 16.7101ZM16.9022 14.7941L16.4918 13.8821L16.9022 14.7941ZM18.7606 13.8104L18.0491 13.1077L18.7606 13.8104ZM18.8167 11.0587L18.0772 11.7318L18.8167 11.0587ZM16.4918 13.8821L14.0165 14.996L14.8373 16.8199L17.3125 15.706L16.4918 13.8821ZM9.98347 14.996L7.10481 13.7006L6.28408 15.5245L9.16275 16.8199L9.98347 14.996ZM7.10481 13.7006C6.64438 13.4934 6.32998 13.3517 6.0991 13.2351C5.86012 13.1144 5.79114 13.0591 5.77838 13.0474L4.42255 14.5176C4.64863 14.7261 4.92493 14.8826 5.19737 15.0203C5.47791 15.162 5.84108 15.3251 6.28408 15.5245L7.10481 13.7006ZM6.01435 9.12585C5.5897 9.36177 5.24154 9.55492 4.97392 9.71974C4.71403 9.87979 4.45188 10.059 4.24416 10.2858L5.71892 11.6367C5.73064 11.6239 5.79472 11.5631 6.0227 11.4227C6.24295 11.2871 6.5443 11.1194 6.98565 10.8742L6.01435 9.12585ZM5.77838 13.0474C5.37332 12.6738 5.34673 12.043 5.71892 11.6367L4.24416 10.2858C3.1276 11.5047 3.20738 13.3971 4.42255 14.5176L5.77838 13.0474ZM14.0165 14.996C12.7605 15.5612 12.3922 15.7057 12.0242 15.7101L12.0485 17.71C12.9303 17.6993 13.739 17.314 14.8373 16.8199L14.0165 14.996ZM9.16275 16.8199C10.261 17.314 11.0697 17.6993 11.9515 17.71L11.9758 15.7101C11.6078 15.7057 11.2395 15.5612 9.98347 14.996L9.16275 16.8199ZM12.0242 15.7101C12.0081 15.7103 11.9919 15.7103 11.9758 15.7101L11.9515 17.71C11.9838 17.7104 12.0162 17.7104 12.0485 17.71L12.0242 15.7101ZM17.3125 15.706C17.8348 15.471 18.2612 15.2794 18.5877 15.1124C18.903 14.951 19.2226 14.7656 19.472 14.5131L18.0491 13.1077C18.0493 13.1075 18.044 13.1129 18.0301 13.1238C18.0161 13.1349 17.9949 13.1503 17.964 13.1704C17.9004 13.2118 17.8093 13.2641 17.6767 13.3319C17.4055 13.4707 17.0337 13.6383 16.4918 13.8821L17.3125 15.706ZM16.5528 10.8944C17.0843 11.1602 17.4489 11.3429 17.7142 11.4925C17.8439 11.5657 17.9328 11.6216 17.9947 11.6656C18.0248 11.687 18.0453 11.7033 18.0589 11.7149C18.0723 11.7264 18.0774 11.732 18.0772 11.7318L19.5563 10.3856C19.3174 10.1231 19.0056 9.9248 18.6971 9.75072C18.3777 9.5705 17.9595 9.36173 17.4472 9.10558L16.5528 10.8944ZM19.472 14.5131C20.5929 13.3784 20.6299 11.5651 19.5563 10.3856L18.0772 11.7318C18.4351 12.125 18.4227 12.7294 18.0491 13.1077L19.472 14.5131Z" fill="white"/>
<path d="M7.09783 9.79407L6.68748 10.706L7.09783 9.79407ZM5.23948 8.81044L5.95092 8.1077L5.23948 8.81044ZM5.18332 6.05868L5.92284 6.73182L5.18332 6.05868ZM12.0364 11.71L12.0485 12.71L12.0364 11.71ZM9.57315 10.9079L9.16279 11.8199L9.57315 10.9079ZM11.9636 11.71L11.9515 12.71L11.9636 11.71ZM16.9022 9.79408L16.4918 8.88215L16.9022 9.79408ZM18.7605 8.81044L19.472 9.51319L18.7605 8.81044ZM18.8167 6.05868L19.5562 5.38555L18.8167 6.05868ZM14.6833 3.84169L14.2361 4.73611L14.6833 3.84169ZM9.31668 3.84169L8.86946 2.94727L9.31668 3.84169ZM12 2.85412V3.85412V2.85412ZM16.4918 8.88215L14.0165 9.99602L14.8372 11.8199L17.3125 10.706L16.4918 8.88215ZM9.98351 9.99602L7.50819 8.88215L6.68748 10.706L9.16279 11.8199L9.98351 9.99602ZM14.2361 4.73611L16.5528 5.89447L17.4472 4.10563L15.1305 2.94727L14.2361 4.73611ZM7.44722 5.89447L9.7639 4.73611L8.86946 2.94727L6.55278 4.10563L7.44722 5.89447ZM7.50819 8.88215C6.96629 8.6383 6.59451 8.47067 6.32335 8.33194C6.19075 8.26409 6.09967 8.21186 6.03604 8.17048C6.00514 8.15037 5.98394 8.1349 5.96994 8.12387C5.95607 8.11293 5.95072 8.1075 5.95092 8.1077L4.52804 9.51319C4.77742 9.76566 5.09703 9.95108 5.41238 10.1124C5.73883 10.2794 6.16519 10.471 6.68748 10.706L7.50819 8.88215ZM6.55278 4.10563C6.04051 4.36176 5.62232 4.57053 5.30296 4.75074C4.99446 4.92481 4.68268 5.12311 4.4438 5.38555L5.92284 6.73182C5.92265 6.73202 5.92777 6.72638 5.94119 6.71489C5.95473 6.70329 5.97527 6.68697 6.00533 6.66562C6.06722 6.62167 6.1561 6.56577 6.28582 6.49257C6.55109 6.34288 6.91572 6.16023 7.44722 5.89447L6.55278 4.10563ZM5.95092 8.1077C5.5773 7.72946 5.56496 7.12499 5.92284 6.73182L4.4438 5.38555C3.37017 6.56506 3.40717 8.37846 4.52804 9.51319L5.95092 8.1077ZM14.0165 9.99602C12.7605 10.5612 12.3922 10.7056 12.0242 10.7101L12.0485 12.71C12.9303 12.6993 13.739 12.314 14.8372 11.8199L14.0165 9.99602ZM9.16279 11.8199C10.261 12.314 11.0697 12.6993 11.9515 12.71L11.9758 10.7101C11.6078 10.7056 11.2395 10.5612 9.98351 9.99602L9.16279 11.8199ZM12.0242 10.7101C12.0081 10.7103 11.9919 10.7103 11.9758 10.7101L11.9515 12.71C11.9838 12.7104 12.0162 12.7104 12.0485 12.71L12.0242 10.7101ZM17.3125 10.706C17.8348 10.471 18.2612 10.2794 18.5876 10.1124C18.903 9.95108 19.2226 9.76566 19.472 9.51319L18.0491 8.1077C18.0493 8.1075 18.0439 8.11293 18.0301 8.12387C18.0161 8.1349 17.9949 8.15037 17.964 8.17048C17.9003 8.21186 17.8092 8.26409 17.6766 8.33194C17.4055 8.47067 17.0337 8.6383 16.4918 8.88215L17.3125 10.706ZM16.5528 5.89447C17.0843 6.16023 17.4489 6.34288 17.7142 6.49257C17.8439 6.56577 17.9328 6.62167 17.9947 6.66562C18.0247 6.68697 18.0453 6.70329 18.0588 6.71489C18.0722 6.72638 18.0773 6.73202 18.0772 6.73182L19.5562 5.38555C19.3173 5.12311 19.0055 4.92481 18.697 4.75074C18.3777 4.57053 17.9595 4.36176 17.4472 4.10563L16.5528 5.89447ZM19.472 9.51319C20.5928 8.37846 20.6298 6.56506 19.5562 5.38555L18.0772 6.73182C18.435 7.12499 18.4227 7.72946 18.0491 8.1077L19.472 9.51319ZM15.1305 2.94727C13.9036 2.33378 12.9998 1.85412 12 1.85412V3.85412C12.4167 3.85412 12.8296 4.03284 14.2361 4.73611L15.1305 2.94727ZM9.7639 4.73611C11.1704 4.03284 11.5833 3.85412 12 3.85412V1.85412C11.0002 1.85412 10.0964 2.33378 8.86946 2.94727L9.7639 4.73611Z" fill="white"/>
</svg>

<svg width="24" height="24" fill="none" xmlns="http://www.w3.org/2000/svg"><path d="M4.94 18.237l-.647.762.647-.762zm-.195-2.86l-.744-.668.744.668zm4.793 5.015l-.41.912.41-.912zM12 21.21v1-1zm5.306-2.098l-.41-.911.41.912zm1.593-.83l.678.736-.678-.736zm.12-2.82l.737-.676-.738.675zM16.894 18.2l-2.843 1.28.82 1.823 2.844-1.28-.82-1.823zm-6.947 1.28l-3.236-1.457-.82 1.824 3.235 1.456.821-1.824zm-3.236-1.457a26.04 26.04 0 0 1-.85-.393 1.618 1.618 0 0 1-.275-.157L4.293 19c.202.172.44.304.675.422.24.12.549.258.923.427l.82-1.824zM5.47 13.652c-.348.218-.635.397-.857.548-.216.148-.434.31-.612.509l1.489 1.335c.01-.012.065-.065.25-.192.181-.123.428-.277.79-.504l-1.06-1.696zm.117 3.822a1 1 0 0 1-.097-1.43L4 14.71a3 3 0 0 0 .293 4.29l1.294-1.524zm8.465 2.006c-1.294.582-1.673.73-2.052.73v2c.909 0 1.742-.397 2.873-.906l-.821-1.824zm-4.925 1.824c1.131.509 1.964.906 2.873.906v-2c-.38 0-.758-.148-2.052-.73l-.82 1.824zm8.589-1.28c.443-.199.806-.362 1.087-.504.272-.137.548-.294.774-.502l-1.355-1.47c-.013.011-.082.066-.321.187-.231.117-.545.258-1.006.466l.82 1.823zm-.702-4.65c.442.245.743.413.963.549.228.14.292.2.304.214l1.475-1.351c-.208-.227-.47-.406-.73-.566-.268-.165-.616-.358-1.04-.594l-.972 1.748zm2.563 3.644a3 3 0 0 0 .179-4.232l-1.475 1.35a1 1 0 0 1-.06 1.411l1.356 1.47z" fill="#fff"/><path d="M5.1 13.783l-.677.735.677-.736zm-.118-2.822l-.738-.675.738.675zm9.445 4.947l-.41-.912.41.912zm-2.39.802l-.013-1 .012 1zm-2.464-.802l.41-.912-.41.912zm2.39.802l-.011 1 .012-1zm4.94-1.916l-.411-.912.41.912zm1.858-.984l-.712-.702.712.702zm.056-2.751l-.74.673.74-.673zm-2.325 2.823l-2.476 1.114.821 1.824 2.476-1.114-.821-1.824zm-6.509 1.114l-2.878-1.295-.82 1.823 2.878 1.296.82-1.824zm-2.878-1.295c-.46-.208-.775-.35-1.006-.466-.239-.12-.308-.176-.32-.188l-1.356 1.47c.226.21.502.366.774.503.28.142.644.305 1.087.505l.82-1.824zm-1.09-4.575c-.425.236-.773.429-1.041.594-.26.16-.522.339-.73.566l1.475 1.35c.012-.012.076-.073.304-.213.22-.136.521-.304.963-.549l-.972-1.748zm-.237 3.921a1 1 0 0 1-.06-1.41l-1.474-1.351a3 3 0 0 0 .179 4.232l1.355-1.47zm8.239 1.949c-1.256.565-1.625.71-1.993.714l.025 2c.881-.01 1.69-.396 2.788-.89l-.82-1.824zM9.163 16.82c1.098.494 1.907.88 2.788.89l.025-2c-.368-.004-.737-.149-1.993-.714l-.82 1.824zm2.861-1.11h-.048l-.025 2h.098l-.025-2zm5.289-.004c.522-.235.948-.427 1.275-.594.315-.161.635-.346.884-.599l-1.423-1.405-.019.016a.887.887 0 0 1-.066.046 3.263 3.263 0 0 1-.287.162 29.47 29.47 0 0 1-1.185.55l.82 1.824zm-.76-4.812c.531.266.896.449 1.161.598.13.074.219.13.28.174a.93.93 0 0 1 .065.049l.018.017 1.48-1.346c-.24-.263-.551-.461-.86-.635-.32-.18-.738-.39-1.25-.645l-.894 1.788zm2.919 3.62a3 3 0 0 0 .084-4.128l-1.479 1.346a1 1 0 0 1-.028 1.376l1.423 1.405z" fill="#fff"/><path d="M7.098 9.794l-.41.912.41-.912zM5.239 8.81l.712-.702-.712.702zM5.183 6.06l.74.673-.74-.673zm6.853 5.651l.013 1-.013-1zm-2.463-.802l-.41.912.41-.912zm2.39.802l-.011 1 .012-1zm4.94-1.916l-.411-.912.41.912zm1.858-.984l.711.703-.712-.703zm.056-2.751l.74-.673-.74.673zm-4.134-2.217l-.447.894.447-.894zm-5.366 0l-.448-.895.448.895zM12 2.854v1-1zm4.492 6.028l-2.476 1.114.821 1.824 2.476-1.114-.821-1.824zM9.984 9.996L7.508 8.882l-.82 1.824 2.475 1.114.82-1.824zm4.252-5.26l2.317 1.158.894-1.788-2.316-1.159-.895 1.79zM7.447 5.894l2.317-1.158-.895-1.789-2.316 1.159.894 1.788zm.061 2.988a29.6 29.6 0 0 1-1.185-.55 3.288 3.288 0 0 1-.287-.162.912.912 0 0 1-.066-.046l-.02-.016-1.422 1.405c.25.253.569.438.884.6.327.166.753.358 1.275.593l.821-1.824zm-.955-4.776c-.512.256-.93.465-1.25.645-.309.174-.62.372-.86.635l1.48 1.346.018-.017a.907.907 0 0 1 .064-.05c.062-.043.151-.1.28-.172.266-.15.63-.333 1.162-.599l-.894-1.788zM5.95 8.108a1 1 0 0 1-.028-1.376l-1.48-1.346a3 3 0 0 0 .085 4.127l1.423-1.405zm8.066 1.888c-1.256.565-1.625.71-1.993.714l.025 2c.881-.01 1.69-.396 2.788-.89l-.82-1.824zM9.163 11.82c1.098.494 1.907.88 2.788.89l.025-2c-.368-.004-.737-.149-1.992-.714l-.821 1.824zm2.861-1.11h-.048l-.025 2h.098l-.025-2zm5.289-.004c.522-.235.948-.427 1.275-.594.315-.16.635-.346.884-.599l-1.423-1.405-.019.016a.912.912 0 0 1-.066.046 3.303 3.303 0 0 1-.287.162c-.271.139-.643.306-1.185.55l.82 1.824zm-.76-4.812c.531.266.896.449 1.161.599.13.073.219.129.28.173.03.021.051.037.065.049l.018.017 1.48-1.346c-.24-.263-.551-.461-.86-.635-.32-.18-.738-.39-1.25-.645l-.894 1.788zm2.919 3.62a3 3 0 0 0 .084-4.128l-1.479 1.346a1 1 0 0 1-.028 1.376l1.423 1.405zM15.13 2.946C13.904 2.334 13 1.854 12 1.854v2c.417 0 .83.179 2.236.882l.894-1.789zm-5.366 1.79c1.406-.704 1.82-.883 2.236-.883v-2c-1 0-1.904.48-3.13 1.093l.894 1.79z" fill="#fff"/></svg>
